flaticon/office/clipboard.svg

<svg xmlns="http://www.w3.org/2000/svg" width="32" height="32" viewBox="0 0 24 24">
    <path d="M 22.800781 2.800781 L 19.199219 2.800781 L 19.199219 2.398438 C 19.199219 1.960938 18.839844 1.601562 18.398438 1.601562 L 17.199219 1.601562 L 17.199219 1.199219 C 17.199219 0.519531 16.679688 0 16 0 L 13.601562 0 C 12.921875 0 12.398438 0.519531 12.398438 1.199219 L 12.398438 1.601562 L 11.199219 1.601562 C 10.761719 1.601562 10.398438 1.960938 10.398438 2.398438 L 10.398438 2.800781 L 6.800781 2.800781 C 6.558594 2.800781 6.398438 2.960938 6.398438 3.199219 L 6.398438 23.601562 C 6.398438 23.839844 6.558594 24 6.800781 24 L 22.800781 24 C 23.039062 24 23.199219 23.839844 23.199219 23.601562 L 23.199219 3.199219 C 23.199219 2.960938 23.039062 2.800781 22.800781 2.800781 Z M 20.398438 18 L 17.601562 18 C 17.359375 18 17.199219 18.160156 17.199219 18.398438 L 17.199219 21.199219 L 9.199219 21.199219 L 9.199219 5.199219 L 10.398438 5.199219 C 10.398438 5.640625 10.761719 6 11.199219 6 L 18.398438 6 C 18.839844 6 19.199219 5.640625 19.199219 5.199219 L 20.398438 5.199219 Z M 19.839844 18.800781 L 18 20.640625 L 18 18.800781 Z M 11.199219 2.398438 L 12.800781 2.398438 C 13.039062 2.398438 13.199219 2.238281 13.199219 2 L 13.199219 1.199219 C 13.199219 0.960938 13.359375 0.800781 13.601562 0.800781 L 16 0.800781 C 16.238281 0.800781 16.398438 0.960938 16.398438 1.199219 L 16.398438 2 C 16.398438 2.238281 16.558594 2.398438 16.800781 2.398438 L 18.398438 2.398438 L 18.398438 5.199219 L 11.199219 5.199219 Z M 22.398438 23.199219 L 7.199219 23.199219 L 7.199219 3.601562 L 10.398438 3.601562 L 10.398438 4.398438 L 8.800781 4.398438 C 8.558594 4.398438 8.398438 4.558594 8.398438 4.800781 L 8.398438 21.601562 C 8.398438 21.839844 8.558594 22 8.800781 22 L 17.601562 22 C 17.757812 22 17.882812 21.929688 17.949219 21.8125 L 21.011719 18.75 C 21.109375 18.695312 21.171875 18.601562 21.191406 18.484375 C 21.199219 18.449219 21.203125 18.414062 21.199219 18.378906 L 21.199219 4.800781 C 21.199219 4.558594 21.039062 4.398438 20.800781 4.398438 L 19.199219 4.398438 L 19.199219 3.601562 L 22.398438 3.601562 Z M 22.398438 23.199219"/>
    <path d="M13.199219 7.199219L10.800781 7.199219C10.558594 7.199219 10.398438 7.359375 10.398438 7.601562L10.398438 10C10.398438 10.238281 10.558594 10.398438 10.800781 10.398438L13.199219 10.398438C13.441406 10.398438 13.601562 10.238281 13.601562 10L13.601562 7.601562C13.601562 7.359375 13.441406 7.199219 13.199219 7.199219zM12.800781 9.601562L11.199219 9.601562 11.199219 8 12.800781 8zM13.199219 11.601562L10.800781 11.601562C10.558594 11.601562 10.398438 11.761719 10.398438 12L10.398438 14.398438C10.398438 14.640625 10.558594 14.800781 10.800781 14.800781L13.199219 14.800781C13.441406 14.800781 13.601562 14.640625 13.601562 14.398438L13.601562 12C13.601562 11.761719 13.441406 11.601562 13.199219 11.601562zM12.800781 14L11.199219 14 11.199219 12.398438 12.800781 12.398438zM13.199219 16L10.800781 16C10.558594 16 10.398438 16.160156 10.398438 16.398438L10.398438 18.800781C10.398438 19.039062 10.558594 19.199219 10.800781 19.199219L13.199219 19.199219C13.441406 19.199219 13.601562 19.039062 13.601562 18.800781L13.601562 16.398438C13.601562 16.160156 13.441406 16 13.199219 16zM12.800781 18.398438L11.199219 18.398438 11.199219 16.800781 12.800781 16.800781zM18.800781 7.199219L15.199219 7.199219C14.960938 7.199219 14.800781 7.359375 14.800781 7.601562 14.800781 7.839844 14.960938 8 15.199219 8L18.800781 8C19.039062 8 19.199219 7.839844 19.199219 7.601562 19.199219 7.359375 19.039062 7.199219 18.800781 7.199219zM15.199219 10L17.601562 10C17.839844 10 18 9.839844 18 9.601562 18 9.359375 17.839844 9.199219 17.601562 9.199219L15.199219 9.199219C14.960938 9.199219 14.800781 9.359375 14.800781 9.601562 14.800781 9.839844 14.960938 10 15.199219 10zM18.800781 11.601562L15.199219 11.601562C14.960938 11.601562 14.800781 11.761719 14.800781 12 14.800781 12.238281 14.960938 12.398438 15.199219 12.398438L18.800781 12.398438C19.039062 12.398438 19.199219 12.238281 19.199219 12 19.199219 11.761719 19.039062 11.601562 18.800781 11.601562zM15.199219 14.398438L17.601562 14.398438C17.839844 14.398438 18 14.238281 18 14 18 13.761719 17.839844 13.601562 17.601562 13.601562L15.199219 13.601562C14.960938 13.601562 14.800781 13.761719 14.800781 14 14.800781 14.238281 14.960938 14.398438 15.199219 14.398438zM18.800781 16.398438L15.199219 16.398438C14.960938 16.398438 14.800781 16.558594 14.800781 16.800781 14.800781 17.039062 14.960938 17.199219 15.199219 17.199219L18.800781 17.199219C19.039062 17.199219 19.199219 17.039062 19.199219 16.800781 19.199219 16.558594 19.039062 16.398438 18.800781 16.398438zM16 18.398438L15.199219 18.398438C14.960938 18.398438 14.800781 18.558594 14.800781 18.800781 14.800781 19.039062 14.960938 19.199219 15.199219 19.199219L16 19.199219C16.238281 19.199219 16.398438 19.039062 16.398438 18.800781 16.398438 18.558594 16.238281 18.398438 16 18.398438zM4.800781 4.398438L4.800781 1.601562C4.800781.71875 4.078125 0 3.199219 0L2.398438 0C1.519531 0 .800781.71875.800781 1.601562L.800781 20.398438C.800781 20.46875.824219 20.546875.867188 20.617188L2.441406 23.761719C2.519531 23.921875 2.640625 24 2.800781 24 2.960938 24 3.078125 23.921875 3.160156 23.800781L4.761719 20.601562C4.839844 20.480469 4.839844 20.398438 4.800781 20.28125zM1.601562 19.800781L1.601562 4.800781 2.398438 4.800781 2.398438 19.640625C2.261719 19.65625 2.125 19.679688 1.992188 19.707031 1.859375 19.730469 1.730469 19.761719 1.601562 19.800781zM1.601562 3.199219L4 3.199219 4 4 1.601562 4zM3.199219 19.636719L3.199219 4.800781 4 4.800781 4 19.800781C3.738281 19.71875 3.46875 19.664062 3.199219 19.636719zM2.398438.800781L3.199219.800781C3.640625.800781 4 1.160156 4 1.601562L4 2.398438 1.601562 2.398438 1.601562 1.601562C1.601562 1.160156 1.960938.800781 2.398438.800781zM2.800781 22.71875L1.761719 20.609375C2.332031 20.410156 2.953125 20.378906 3.535156 20.511719 3.546875 20.511719 3.558594 20.515625 3.570312 20.519531 3.578125 20.519531 3.585938 20.523438 3.59375 20.523438 3.675781 20.546875 3.757812 20.570312 3.839844 20.601562zM2.800781 22.71875"/>
</svg>

<svg xmlns="http://www.w3.org/2000/svg" width="32" height="32" viewBox="0 0 24 24">
    <path d="M22.8 2.8h-3.6v-.402a.801.801 0 0 0-.802-.796H17.2v-.403C17.2.52 16.68 0 16 0h-2.398c-.68 0-1.204.52-1.204 1.2v.402H11.2c-.437 0-.8.359-.8.796v.403H6.8c-.242 0-.403.16-.403.398v20.403c0 .238.16.398.403.398h16c.238 0 .398-.16.398-.398V3.199c0-.238-.16-.398-.398-.398zM20.399 18h-2.796c-.243 0-.403.16-.403.398V21.2h-8v-16h1.2c0 .442.363.801.8.801h7.2c.44 0 .8-.36.8-.8h1.2zm-.558.8L18 20.64V18.8zM11.2 2.399h1.6c.24 0 .4-.16.4-.398v-.8c0-.24.16-.4.402-.4H16c.238 0 .398.16.398.4V2c0 .238.16.398.403.398h1.597V5.2H11.2zM22.397 23.2H7.2V3.602h3.2v.796H8.8c-.242 0-.403.16-.403.403v16.8c0 .239.16.399.403.399h8.8c.157 0 .282-.07.348-.188l3.063-3.062a.362.362 0 0 0 .18-.266.321.321 0 0 0 .007-.105V4.8c0-.242-.16-.403-.398-.403h-1.602v-.796h3.2zm0 0"/>
    <path d="M13.2 7.2h-2.4c-.241 0-.402.16-.402.402V10c0 .238.16.398.403.398h2.398c.242 0 .403-.16.403-.398V7.602c0-.243-.16-.403-.403-.403zm-.4 2.402h-1.6V8h1.6zm0 0M13.2 11.602h-2.4c-.241 0-.402.16-.402.398v2.398c0 .243.16.403.403.403h2.398c.242 0 .403-.16.403-.403V12c0-.238-.16-.398-.403-.398zM12.8 14h-1.6v-1.602h1.6zm0 0M13.2 16h-2.4c-.241 0-.402.16-.402.398v2.403c0 .238.16.398.403.398h2.398c.242 0 .403-.16.403-.398v-2.403c0-.238-.16-.398-.403-.398zm-.4 2.398h-1.6v-1.597h1.6zm0 0M18.8 7.2h-3.6c-.24 0-.4.16-.4.402 0 .238.16.398.4.398h3.6c.24 0 .4-.16.4-.398 0-.243-.16-.403-.4-.403zm0 0M15.2 10h2.402c.238 0 .398-.16.398-.398 0-.243-.16-.403-.398-.403h-2.403c-.238 0-.398.16-.398.403 0 .238.16.398.398.398zm0 0M18.8 11.602h-3.6c-.24 0-.4.16-.4.398 0 .238.16.398.4.398h3.6c.24 0 .4-.16.4-.398 0-.238-.16-.398-.4-.398zm0 0M15.2 14.398h2.402c.238 0 .398-.16.398-.398 0-.238-.16-.398-.398-.398h-2.403c-.238 0-.398.16-.398.398 0 .238.16.398.398.398zm0 0M18.8 16.398h-3.6c-.24 0-.4.16-.4.403 0 .238.16.398.4.398h3.6c.24 0 .4-.16.4-.398 0-.242-.16-.403-.4-.403zm0 0M16 18.398h-.8c-.24 0-.4.16-.4.403 0 .238.16.398.4.398h.8c.238 0 .398-.16.398-.398 0-.242-.16-.403-.398-.403zm0 0M4.8 4.398V1.602C4.8.719 4.079 0 3.2 0h-.802C1.52 0 .801.719.801 1.602v18.796c0 .07.023.149.066.22l1.574 3.144c.079.16.2.238.36.238.16 0 .277-.078.36-.2l1.6-3.198a.32.32 0 0 0 .04-.32zM1.603 19.801v-15h.796v14.84c-.136.015-.273.039-.406.066a3.343 3.343 0 0 0-.39.094zm0-16.602H4V4H1.602zm1.597 16.438V4.8H4v15a4.05 4.05 0 0 0-.8-.164zM2.4.8h.8c.442 0 .801.36.801.8v.797H1.602v-.796c0-.442.359-.801.796-.801zM2.8 22.719l-1.04-2.11a3.228 3.228 0 0 1 1.81-.09c.007 0 .015.004.023.004.082.024.164.047.246.079zm0 0"/>
</svg>
